packages/flutter/assets/icons/gear.svg

<?xml version="1.0" encoding="UTF-8"?>
<svg width="24px" height="24px" viewBox="0 0 24 24" version="1.1" xmlns="http://www.w3.org/2000/svg" xmlns:xlink="http://www.w3.org/1999/xlink">
    <title>gear</title>
    <g id="gear" stroke="none" stroke-width="1" fill="none" fill-rule="evenodd">
        <path d="M12.8610823,4.04580078 L14.4392439,2.29961053 C15.4007327,2.54061748 16.3070077,2.92082765 17.1354049,3.41757707 L17.0155142,5.76709729 C17.4632418,6.12783371 17.8712965,6.5358242 18.2321028,6.98349311 L20.5818192,6.86358844 C21.0788643,7.69225808 21.4592849,8.59887782 21.7003895,9.56075615 L19.9541992,11.1389177 C19.9844719,11.4217959 20,11.7090846 20,12 C20,12.2905724 19.9845085,12.5775265 19.9543063,12.8600815 L21.7006387,14.4382493 C21.4596447,15.4001077 21.0793436,16.306722 20.5824229,17.1354049 L18.2329027,17.0155142 C17.8718997,17.4635727 17.4635727,17.8718997 17.0155142,18.2329027 L17.1354049,20.5824229 C16.306722,21.0793436 15.4001077,21.4596447 14.4382493,21.7006387 L12.8600815,19.9543063 C12.5775265,19.9845085 12.2905724,20 12,20 C11.7090846,20 11.4217959,19.9844719 11.1389177,19.9541992 L9.56075615,21.7003895 C8.59887782,21.4592849 7.69225808,21.0788643 6.86358844,20.5818192 L6.98349311,18.2321028 C6.5358242,17.8712965 6.12783371,17.4632418 5.76709729,17.0155142 L3.41757707,17.1354049 C2.92082765,16.3070077 2.54061748,15.4007327 2.29961053,14.4392439 L4.04580078,12.8610823 C4.01552813,12.5782041 4,12.2909154 4,12 C4,11.7090846 4.01552813,11.4217959 4.04580078,11.1389177 L2.29961053,9.56075615 C2.54071512,8.59887782 2.92113571,7.69225808 3.41818082,6.86358844 L5.76789722,6.98349311 C6.12843682,6.53615507 6.53615507,6.12843682 6.98349311,5.76789722 L6.86358844,3.41818082 C7.69225808,2.92113571 8.59887782,2.54071512 9.56075615,2.29961053 L11.1389177,4.04580078 C11.4217959,4.01552813 11.7090846,4 12,4 C12.2909154,4 12.5782041,4.01552813 12.8610823,4.04580078 Z M14.7627812,3.43200967 L13.2613266,5.09434349 L12.7546733,5.04012323 C12.5053929,5.0134461 12.2536175,5 12,5 C11.7463825,5 11.4946071,5.0134461 11.2453267,5.04012323 L10.7386734,5.09434349 L9.23629911,3.43200967 C8.77390166,3.58103491 8.32518335,3.76734157 7.89400948,3.98882985 L8.00819067,6.22638575 L7.6110168,6.54649469 C7.21928713,6.86221579 6.86221579,7.21928713 6.54649469,7.6110168 L6.22638575,8.00819067 L3.98882985,7.89400948 C3.76734157,8.32518335 3.58103491,8.77390166 3.43200967,9.23629911 L5.09434349,10.7386734 L5.04012323,11.2453267 C5.0134461,11.4946071 5,11.7463825 5,12 C5,12.2536175 5.0134461,12.5053929 5.04012323,12.7546733 L5.09434349,13.2613266 L3.43200967,14.7637009 C3.58091842,15.2257369 3.76705045,15.6741155 3.98831113,16.1049805 L6.22568629,15.9908124 L6.54579426,16.388114 C6.86168708,16.780184 7.21899672,17.1375501 7.6110168,17.4535053 L8.00819067,17.7736143 L7.89400948,20.0111701 C8.32518335,20.2326584 8.77390166,20.4189651 9.23629911,20.5679903 L10.7386734,18.9056565 L11.2453267,18.9598768 C11.4946071,18.9865539 11.7463825,19 12,19 C12.2533203,19 12.5048029,18.9865854 12.7537973,18.9599705 L13.2604029,18.9058196 L14.7627812,20.5682867 C15.2251417,20.4193286 15.6738294,20.2330965 16.1049805,20.0116889 L15.9908124,17.7743137 L16.388114,17.4542057 C16.7804744,17.1380789 17.1380789,16.7804744 17.4542057,16.388114 L17.7743137,15.9908124 L20.0116889,16.1049805 C20.2330965,15.6738294 20.4193286,15.2251417 20.5682867,14.7627812 L18.9058196,13.2604029 L18.9599705,12.7537973 C18.9865854,12.5048029 19,12.2533203 19,12 C19,11.7463825 18.9865539,11.4946071 18.9598768,11.2453267 L18.9056565,10.7386734 L20.5679903,9.23629911 C20.4189651,8.77390166 20.2326584,8.32518335 20.0111701,7.89400948 L17.7736143,8.00819067 L17.4535053,7.6110168 C17.1375501,7.21899672 16.780184,6.86168708 16.388114,6.54579426 L15.9908124,6.22568629 L16.1049805,3.98831113 C15.499689,3.67747777 15.4265092,3.59837985 14.7627812,3.43200967 L14.4392439,2.29961053 L14.7627812,3.43200967 Z M12,8 C14.209139,8 16,9.790861 16,12 C16,14.209139 14.209139,16 12,16 C9.790861,16 8,14.209139 8,12 C8,9.790861 9.790861,8 12,8 Z M12,9 C10.3431458,9 9,10.3431458 9,12 C9,13.6568542 10.3431458,15 12,15 C13.6568542,15 15,13.6568542 15,12 C15,10.3431458 13.6568542,9 12,9 Z" fill="#303846"></path>
    </g>
</svg>

<svg xmlns="http://www.w3.org/2000/svg" width="24" height="24" viewBox="0 0 24 24"><path fill-rule="evenodd" d="M12.861 4.046L14.44 2.3a9.94 9.94 0 0 1 2.696 1.118l-.12 2.35c.448.36.856.768 1.217 1.215l2.35-.12A9.94 9.94 0 0 1 21.7 9.562l-1.746 1.578a8.09 8.09 0 0 1 0 1.721l1.747 1.578a9.94 9.94 0 0 1-1.119 2.697l-2.35-.12c-.36.449-.768.857-1.216 1.218l.12 2.35a9.94 9.94 0 0 1-2.698 1.118l-1.578-1.747a8.09 8.09 0 0 1-1.721 0L9.56 21.7a9.94 9.94 0 0 1-2.697-1.118l.12-2.35a8.048 8.048 0 0 1-1.217-1.216l-2.35.12A9.94 9.94 0 0 1 2.3 14.438l1.746-1.578a8.09 8.09 0 0 1 0-1.722L2.3 9.56a9.94 9.94 0 0 1 1.118-2.697l2.35.12c.36-.448.768-.856 1.215-1.216l-.12-2.35A9.94 9.94 0 0 1 9.562 2.3l1.578 1.746a8.09 8.09 0 0 1 1.722 0zm1.902-.614L13.26 5.094l-.506-.054a7.09 7.09 0 0 0-1.51 0l-.506.054-1.503-1.662a8.937 8.937 0 0 0-1.342.557l.114 2.237-.397.32a7.048 7.048 0 0 0-1.065 1.065l-.32.397-2.237-.114c-.222.431-.408.88-.557 1.342l1.662 1.503-.054.506a7.09 7.09 0 0 0 0 1.51l.054.506-1.662 1.503c.149.462.335.91.556 1.341l2.238-.114.32.397c.316.392.673.75 1.065 1.066l.397.32-.114 2.237c.431.222.88.408 1.342.557l1.503-1.662.506.054a7.09 7.09 0 0 0 1.509 0l.506-.054 1.503 1.662a8.937 8.937 0 0 0 1.342-.556l-.114-2.238.397-.32c.392-.316.75-.674 1.066-1.066l.32-.397 2.238.114c.221-.431.407-.88.556-1.342l-1.662-1.503.054-.506a7.09 7.09 0 0 0 0-1.509l-.054-.506 1.662-1.503a8.937 8.937 0 0 0-.557-1.342l-2.237.114-.32-.397a7.048 7.048 0 0 0-1.066-1.065l-.397-.32.114-2.238c-.605-.31-.678-.39-1.342-.556L14.439 2.3l.324 1.132zM12 8a4 4 0 1 1 0 8 4 4 0 0 1 0-8zm0 1a3 3 0 1 0 0 6 3 3 0 0 0 0-6z"/></svg>
